X: 1
T: Polons, sexdregasamlingen del 1 nr 124
B: Sexdregasamlingen del 1 nr 124
O: Sexdrega, Vstergtland
R: Slngpolska
S: efter Johannes Bryngelsson
Z: 2008-05-31 av Nils L
M: 3/4
K: Bb
L: 1/16
N: En polska efter Ludvig Olsson frn Malexander (http://www.smus.se/earkiv/fmk/browselarge.phplang=sw&katalogid=Ma9&bildnr=00062|SMUS - katalog Ma9 bild 62) verkar vara en variant som innehller ytterligare delar som kanske frsvunnit frn denna.
dcde d2c2 B2A2 | GBdg f4 [D4d4] | b2gb a2gf e2d2 | g2eg f2ed c2B2 | 
e2ce d2cB A2G2 | F2A2 d2F2 D4 | d2dc d2g2 g2b2 | c2c=B c2f2 f2a2 |
c2de d2F2 G2A2 | dcBA G4 G,4 :: B2>d2 c2>e2 d4 | BFBd cFce d4 |
d2de f2d2 c4 | BABd cBAG F4 | F2FB A2AB c4 | F2FA B2Bc d4 |
F2FB A2AB c4 | F2FA B2Bc d4 | d2dc (d2>g2) (g2>b2) | c2c=B c2f2 f2a2 |
c2de d2cB A2>G2 | FBAc B4 !D.C.!B,4 :|
